!!!COM: Béla Bartók
!!!OTL: [T334_Bar-w27p13h7m3-10]
**kern	**kern	**dynam	**kern	**dynam
*grp:A	*grp:A	*grp:A	*grp:B	*grp:B
*part2	*part2	*part2	*part1	*part1
*staff3	*staff2	*	*staff1	*
*I"Piano	*I"Piano	*	*I"Violin	*
*I'Pno.	*I'Pno.	*	*I'Vln.	*
*clefF4	*clefF4	*	*clefG2	*
*k[]	*k[]	*	*k[]	*
*M2/4	*M2/4	*	*M2/4	*
=67	=67	=67	=67	=67
!	!LO:TX:a:i:t=[staccato]	!LO:DY:ed=brack	!LO:TX:t=[Più vivo [quarter]=120]	!LO:DY:ed=brack
!	!	!	!LO:TX:t=P:problem:cross-measure beaming still needs to be applied.	!
/8EEEL 8BBB	2ryy	p	/(16cc#XLL	p
.	.	.	16a	.
8FF>^>J 8C>	.	.	16gJJ)	.
.	.	.	(16ccnLL	.
/8BBL 8D#X	.	.	16b-X	.
.	.	.	\16gJJ)	.
8B-X>J 8d>	.	.	16r	.
.	.	.	/(16cc#XLL	<
=68	=68	=68	=68	=68
/8EEE^<L 8BBB	2ryy	.	16a	.
.	.	.	16gJJ)	.
8FF>J 8C>	.	.	/(16ccnLL	.
.	.	.	/16b-XJ	[
/8BBL 8D#X	.	.	8g'J)	.
8B-X>^>J 8d>	.	.	(>16gLL	p
.	.	.	16aJJ	.
=69	=69	=69	=69	=69
/8EEEL 8BBB	2ryy	.	16bLL	.
.	.	.	16cc#X	.
8FF>J 8C>	.	.	16dd#X	.
.	.	.	16eeJJ	.
/8BB^<L 8D#X	.	.	16dd#LL	<
.	.	.	16ee	.
8B-X>J 8d>	.	.	16ff^	[
.	.	.	16eeJJ	.
=70	=70	=70	=70	=70
/8EEEL 8BBB	2ryy	.	16dd#XLL	.
.	.	.	16ee	.
8FF>^>J 8C>	.	.	16dd#	.
.	.	.	16cc#XJJ)	.
/8BBL 8D#X	.	.	(16dd#LL	.
.	.	.	16cc#	.
8B-X>J 8dn>	.	.	16bJ	.
.	.	.	16cc#L	.
!!linebreak:original
=71	=71	=71	=71	=71
/8EEE^<L 8BBB	2ryy	.	16b	.
.	.	.	\16aJ	.
8FF>J 8C>	.	.	16bL	.
.	.	.	\16aJ	.
/8BBL 8D#X	.	.	\8g'J)	.
8B-X>^>J 8d>	.	.	/(16cc#X^LL	.
.	.	.	16a	.
=72	=72	=72	=72	=72
/8EEEL 8BBB	2ryy	.	16gJJ)	.
.	.	.	/(16ccn^LL	.
8FF>J 8C>	.	.	/16b-X	.
.	.	.	16gJJ)	.
/8BB^<L 8D#X	.	.	16r	.
.	.	.	/(16cc#X^LL	.
8B-X>J 8d>	.	.	16a	.
.	.	.	16gJJ)	.
=73	=73	=73	=73	=73
/8EEEL 8BBB	2ryy	.	(16ccn^^LL	.
.	.	.	16b-X	.
8FF>^>J 8C>	.	.	16gJJ)	.
.	.	.	16r	.
/8BBL 8D#X	.	.	(16ccc#XLL	sf
.	.	.	16aa	.
8B-X>J 8d>	.	<	16ggJJ)	.
.	.	.	16r	.
=74	=74	=74	=74	=74
/8EEE^<L 8BBB	2ryy	.	(16ccn^^LL	<
.	.	.	16b-X	.
8FF>J 8C>	.	.	16gJJ)	.
.	.	.	(16c#XLL	[
/8BB^<L 8D#X	.	.	16An	f
.	.	.	16GJJ)	.
8B-X>J 8d>	.	.	8r	.
.	.	[	.	.
=	=	=	=	=
*-	*-	*-	*-	*-
!!!system-decoration: s1{(s2,s3)}
!!!RDF**kern: > = above
!!!RDF**kern: < = below
!!!EED: Daniel Wright
!!!EEV: 2021/07/22
!!!EEV: 2021/08/04
!!!EED2: Jason Lee
!!!EEV2: 2022/01/28
